static/img/kroki/0520830fb3079504494e8b907bbf92ae.svg

<?xml version="1.0" encoding="us-ascii" standalone="no"?><svg xmlns="http://www.w3.org/2000/svg" xmlns:xlink="http://www.w3.org/1999/xlink" contentStyleType="text/css" height="1085px" preserveAspectRatio="none" style="width:286px;height:1085px;" version="1.1" viewBox="0 0 286 1085" width="286px" zoomAndPan="magnify"><defs/><g><!--class azure_sku--><g id="elem_azure_sku"><rect codeLine="23" fill="#3D176E" height="179.2734" id="azure_sku" rx="2.5" ry="2.5" style="stroke:#000D19;stroke-width:0.5;" width="131" x="77.5" y="899.42"/><ellipse cx="94.75" cy="919.3145" fill="#ADD1B2" rx="11" ry="11" style="stroke:#181818;stroke-width:1.0;"/><path d="M97.7188,924.9552 Q97.1406,925.252 96.5,925.3927 Q95.8594,925.5489 95.1563,925.5489 Q92.6563,925.5489 91.3281,923.9083 Q90.0156,922.252 90.0156,919.127 Q90.0156,916.002 91.3281,914.3458 Q92.6563,912.6895 95.1563,912.6895 Q95.8594,912.6895 96.5,912.8458 Q97.1563,913.002 97.7188,913.2989 L97.7188,916.0177 Q97.0938,915.4395 96.5,915.1739 Q95.9063,914.8927 95.2813,914.8927 Q93.9375,914.8927 93.25,915.9708 Q92.5625,917.0333 92.5625,919.127 Q92.5625,921.2208 93.25,922.2989 Q93.9375,923.3614 95.2813,923.3614 Q95.9063,923.3614 96.5,923.0958 Q97.0938,922.8145 97.7188,922.2364 L97.7188,924.9552 Z " fill="#000000"/><text fill="#D9B8FF" font-family="Helvetica" font-size="17" lengthAdjust="spacing" textLength="84" x="114.25" y="925.1998">azure_sku</text><line style="stroke:#000D19;stroke-width:0.5;" x1="78.5" x2="207.5" y1="939.2091" y2="939.2091"/><text fill="#D9B8FF" font-family="sans-serif" font-size="14" font-weight="bold" lengthAdjust="spacing" textLength="65" x="88.5" y="961.2042">capacity</text><text fill="#D9B8FF" font-family="sans-serif" font-size="14" lengthAdjust="spacing" textLength="44" x="153.5" y="961.2042">: int64</text><text fill="#D9B8FF" font-family="sans-serif" font-size="14" font-weight="bold" lengthAdjust="spacing" textLength="46" x="88.5" y="987.5011">family</text><text fill="#D9B8FF" font-family="sans-serif" font-size="14" lengthAdjust="spacing" textLength="48" x="134.5" y="987.5011">: string</text><text fill="#D9B8FF" font-family="sans-serif" font-size="14" font-weight="bold" lengthAdjust="spacing" textLength="43" x="88.5" y="1013.7979">name</text><text fill="#D9B8FF" font-family="sans-serif" font-size="14" lengthAdjust="spacing" textLength="48" x="131.5" y="1013.7979">: string</text><text fill="#D9B8FF" font-family="sans-serif" font-size="14" font-weight="bold" lengthAdjust="spacing" textLength="32" x="88.5" y="1040.0948">size</text><text fill="#D9B8FF" font-family="sans-serif" font-size="14" lengthAdjust="spacing" textLength="48" x="120.5" y="1040.0948">: string</text><text fill="#D9B8FF" font-family="sans-serif" font-size="14" font-weight="bold" lengthAdjust="spacing" textLength="27" x="88.5" y="1066.3917">tier</text><text fill="#D9B8FF" font-family="sans-serif" font-size="14" lengthAdjust="spacing" textLength="48" x="115.5" y="1066.3917">: string</text></g><!--class azure_sql_server_job_agent--><g id="elem_azure_sql_server_job_agent"><rect codeLine="30" fill="#3D176E" height="179.2734" id="azure_sql_server_job_agent" rx="2.5" ry="2.5" style="stroke:#000D19;stroke-width:0.5;" width="272" x="7" y="660.14"/><ellipse cx="22" cy="680.0345" fill="#ADD1B2" rx="11" ry="11" style="stroke:#181818;stroke-width:1.0;"/><path d="M24.9688,685.6752 Q24.3906,685.972 23.75,686.1127 Q23.1094,686.2689 22.4063,686.2689 Q19.9063,686.2689 18.5781,684.6283 Q17.2656,682.972 17.2656,679.847 Q17.2656,676.722 18.5781,675.0658 Q19.9063,673.4095 22.4063,673.4095 Q23.1094,673.4095 23.75,673.5658 Q24.4063,673.722 24.9688,674.0189 L24.9688,676.7377 Q24.3438,676.1595 23.75,675.8939 Q23.1563,675.6127 22.5313,675.6127 Q21.1875,675.6127 20.5,676.6908 Q19.8125,677.7533 19.8125,679.847 Q19.8125,681.9408 20.5,683.0189 Q21.1875,684.0814 22.5313,684.0814 Q23.1563,684.0814 23.75,683.8158 Q24.3438,683.5345 24.9688,682.9564 L24.9688,685.6752 Z " fill="#000000"/><text fill="#D9B8FF" font-family="Helvetica" font-size="17" lengthAdjust="spacing" textLength="230" x="41" y="685.9198">azure_sql_server_job_agent</text><line style="stroke:#000D19;stroke-width:0.5;" x1="8" x2="278" y1="699.9291" y2="699.9291"/><text fill="#D9B8FF" font-family="sans-serif" font-size="14" font-weight="bold" lengthAdjust="spacing" textLength="93" x="18" y="721.9242">database_id</text><text fill="#D9B8FF" font-family="sans-serif" font-size="14" lengthAdjust="spacing" textLength="48" x="111" y="721.9242">: string</text><text fill="#D9B8FF" font-family="sans-serif" font-size="14" font-weight="bold" lengthAdjust="spacing" textLength="111" x="18" y="748.2211">job_agent_sku</text><text fill="#D9B8FF" font-family="sans-serif" font-size="14" lengthAdjust="spacing" textLength="80" x="129" y="748.2211">: azure_sku</text><text fill="#D9B8FF" font-family="sans-serif" font-size="14" font-weight="bold" lengthAdjust="spacing" textLength="62" x="18" y="774.5179">location</text><text fill="#D9B8FF" font-family="sans-serif" font-size="14" lengthAdjust="spacing" textLength="48" x="80" y="774.5179">: string</text><text fill="#D9B8FF" font-family="sans-serif" font-size="14" font-weight="bold" lengthAdjust="spacing" textLength="40" x="18" y="800.8148">state</text><text fill="#D9B8FF" font-family="sans-serif" font-size="14" lengthAdjust="spacing" textLength="48" x="58" y="800.8148">: string</text><text fill="#D9B8FF" font-family="sans-serif" font-size="14" font-weight="bold" lengthAdjust="spacing" textLength="35" x="18" y="827.1117">type</text><text fill="#D9B8FF" font-family="sans-serif" font-size="14" lengthAdjust="spacing" textLength="48" x="53" y="827.1117">: string</text></g><!--class microsoft_resource--><g id="elem_microsoft_resource"><rect codeLine="37" fill="#3D176E" height="100.3828" id="microsoft_resource" rx="2.5" ry="2.5" style="stroke:#000D19;stroke-width:0.5;" width="214" x="36" y="438.76"/><ellipse cx="57.3" cy="458.6545" fill="#ADD1B2" rx="11" ry="11" style="stroke:#181818;stroke-width:1.0;"/><path d="M60.2688,464.2952 Q59.6906,464.592 59.05,464.7327 Q58.4094,464.8889 57.7063,464.8889 Q55.2063,464.8889 53.8781,463.2483 Q52.5656,461.592 52.5656,458.467 Q52.5656,455.342 53.8781,453.6858 Q55.2063,452.0295 57.7063,452.0295 Q58.4094,452.0295 59.05,452.1858 Q59.7063,452.342 60.2688,452.6389 L60.2688,455.3577 Q59.6438,454.7795 59.05,454.5139 Q58.4563,454.2327 57.8313,454.2327 Q56.4875,454.2327 55.8,455.3108 Q55.1125,456.3733 55.1125,458.467 Q55.1125,460.5608 55.8,461.6389 Q56.4875,462.7014 57.8313,462.7014 Q58.4563,462.7014 59.05,462.4358 Q59.6438,462.1545 60.2688,461.5764 L60.2688,464.2952 Z " fill="#000000"/><text fill="#D9B8FF" font-family="Helvetica" font-size="17" lengthAdjust="spacing" textLength="158" x="77.7" y="464.5398">microsoft_resource</text><line style="stroke:#000D19;stroke-width:0.5;" x1="37" x2="249" y1="478.5491" y2="478.5491"/><text fill="#D9B8FF" font-family="sans-serif" font-size="14" font-weight="bold" lengthAdjust="spacing" textLength="35" x="47" y="500.5442">etag</text><text fill="#D9B8FF" font-family="sans-serif" font-size="14" lengthAdjust="spacing" textLength="48" x="82" y="500.5442">: string</text><text fill="#D9B8FF" font-family="sans-serif" font-size="14" font-weight="bold" lengthAdjust="spacing" textLength="144" x="47" y="526.8411">provisioning_state</text><text fill="#D9B8FF" font-family="sans-serif" font-size="14" lengthAdjust="spacing" textLength="48" x="191" y="526.8411">: string</text></g><!--class resource--><g id="elem_resource"><rect codeLine="41" fill="#3D176E" height="310.7578" id="resource" rx="2.5" ry="2.5" style="stroke:#000D19;stroke-width:0.5;" width="227" x="29.5" y="7"/><ellipse cx="98.25" cy="26.8945" fill="#ADD1B2" rx="11" ry="11" style="stroke:#181818;stroke-width:1.0;"/><path d="M101.2188,32.5352 Q100.6406,32.832 100,32.9727 Q99.3594,33.1289 98.6563,33.1289 Q96.1563,33.1289 94.8281,31.4883 Q93.5156,29.832 93.5156,26.707 Q93.5156,23.582 94.8281,21.9258 Q96.1563,20.2695 98.6563,20.2695 Q99.3594,20.2695 100,20.4258 Q100.6563,20.582 101.2188,20.8789 L101.2188,23.5977 Q100.5938,23.0195 100,22.7539 Q99.4063,22.4727 98.7813,22.4727 Q97.4375,22.4727 96.75,23.5508 Q96.0625,24.6133 96.0625,26.707 Q96.0625,28.8008 96.75,29.8789 Q97.4375,30.9414 98.7813,30.9414 Q99.4063,30.9414 100,30.6758 Q100.5938,30.3945 101.2188,29.8164 L101.2188,32.5352 Z " fill="#000000"/><text fill="#D9B8FF" font-family="Helvetica" font-size="17" lengthAdjust="spacing" textLength="71" x="123.75" y="32.7798">resource</text><line style="stroke:#000D19;stroke-width:0.5;" x1="30.5" x2="255.5" y1="46.7891" y2="46.7891"/><text fill="#D9B8FF" font-family="sans-serif" font-size="14" font-weight="bold" lengthAdjust="spacing" textLength="29" x="40.5" y="68.7842">age</text><text fill="#D9B8FF" font-family="sans-serif" font-size="14" lengthAdjust="spacing" textLength="66" x="69.5" y="68.7842">: duration</text><text fill="#D9B8FF" font-family="sans-serif" font-size="14" font-weight="bold" lengthAdjust="spacing" textLength="43" x="40.5" y="95.0811">atime</text><text fill="#D9B8FF" font-family="sans-serif" font-size="14" lengthAdjust="spacing" textLength="70" x="83.5" y="95.0811">: datetime</text><text fill="#D9B8FF" font-family="sans-serif" font-size="14" font-weight="bold" lengthAdjust="spacing" textLength="43" x="40.5" y="121.3779">ctime</text><text fill="#D9B8FF" font-family="sans-serif" font-size="14" lengthAdjust="spacing" textLength="70" x="83.5" y="121.3779">: datetime</text><text fill="#D9B8FF" font-family="sans-serif" font-size="14" font-weight="bold" lengthAdjust="spacing" textLength="14" x="40.5" y="147.6748">id</text><text fill="#D9B8FF" font-family="sans-serif" font-size="14" lengthAdjust="spacing" textLength="48" x="54.5" y="147.6748">: string</text><text fill="#D9B8FF" font-family="sans-serif" font-size="14" font-weight="bold" lengthAdjust="spacing" textLength="33" x="40.5" y="173.9717">kind</text><text fill="#D9B8FF" font-family="sans-serif" font-size="14" lengthAdjust="spacing" textLength="48" x="73.5" y="173.9717">: string</text><text fill="#D9B8FF" font-family="sans-serif" font-size="14" font-weight="bold" lengthAdjust="spacing" textLength="90" x="40.5" y="200.2686">last_access</text><text fill="#D9B8FF" font-family="sans-serif" font-size="14" lengthAdjust="spacing" textLength="66" x="130.5" y="200.2686">: duration</text><text fill="#D9B8FF" font-family="sans-serif" font-size="14" font-weight="bold" lengthAdjust="spacing" textLength="90" x="40.5" y="226.5654">last_update</text><text fill="#D9B8FF" font-family="sans-serif" font-size="14" lengthAdjust="spacing" textLength="66" x="130.5" y="226.5654">: duration</text><text fill="#D9B8FF" font-family="sans-serif" font-size="14" font-weight="bold" lengthAdjust="spacing" textLength="48" x="40.5" y="252.8623">mtime</text><text fill="#D9B8FF" font-family="sans-serif" font-size="14" lengthAdjust="spacing" textLength="70" x="88.5" y="252.8623">: datetime</text><text fill="#D9B8FF" font-family="sans-serif" font-size="14" font-weight="bold" lengthAdjust="spacing" textLength="43" x="40.5" y="279.1592">name</text><text fill="#D9B8FF" font-family="sans-serif" font-size="14" lengthAdjust="spacing" textLength="48" x="83.5" y="279.1592">: string</text><text fill="#D9B8FF" font-family="sans-serif" font-size="14" font-weight="bold" lengthAdjust="spacing" textLength="34" x="40.5" y="305.4561">tags</text><text fill="#D9B8FF" font-family="sans-serif" font-size="14" lengthAdjust="spacing" textLength="171" x="74.5" y="305.4561">: dictionary[string, string]</text></g><!--link azure_sql_server_job_agent to azure_sku--><g id="link_azure_sql_server_job_agent_azure_sku"><path codeLine="53" d="M143,839.81 C143,859.14 143,873.59 143,892.92 " fill="none" id="azure_sql_server_job_agent-to-azure_sku" style="stroke:#FFAF37;stroke-width:2.0;"/><polygon fill="#FFAF37" points="143,898.92,147,889.92,143,893.92,139,889.92,143,898.92" style="stroke:#FFAF37;stroke-width:2.0;"/></g><!--reverse link microsoft_resource to azure_sql_server_job_agent--><g id="link_microsoft_resource_azure_sql_server_job_agent"><path codeLine="54" d="M143,557.55 C143,591.53 143,619.56 143,659.79 " fill="none" id="microsoft_resource-backto-azure_sql_server_job_agent" style="stroke:#FFAF37;stroke-width:2.0;"/><polygon fill="none" points="143,539.55,137,557.55,149,557.55,143,539.55" style="stroke:#FFAF37;stroke-width:2.0;"/></g><!--reverse link resource to microsoft_resource--><g id="link_resource_microsoft_resource"><path codeLine="55" d="M143,336.06 C143,379.66 143,405.98 143,438.42 " fill="none" id="resource-backto-microsoft_resource" style="stroke:#FFAF37;stroke-width:2.0;"/><polygon fill="none" points="143,318.06,137,336.06,149,336.06,143,318.06" style="stroke:#FFAF37;stroke-width:2.0;"/></g><!--SRC=[XLFHRjD047pFLvpKjmXBIGjDWn1IYOJWfKAKDuIizTtQkSQ-CtlhL2dmxvpjD3gVtVJDdXdlpEoTjrgXmAhcWwYmof3SpEsqgO6W4hT4zd5ZIqlY8iyXlrh5v6Th-5N17LGelc2vHzOIOiMFhPOxWyw9ou3w179Na6sCwiSpWN6UGiE1QbE2SxVCfBE6CGYZrjbDdiVAUEZ5bLgkhd4aiwIGZfB5Og6MwrZogjNPtYV5lNv2iGoNTcSPHp575ftgRCfM4OGS5NtcNypu3PJIfX3l0knxduaCqW2_tuAoZwqwXzA5DewHqFAXnise5QvlLBwQ57zzIJoJxUe4F3M4gTiruiziFfTGWzHycC_V2stu-gt7SgXqsI7EtmvJUCZugWF0-UqF0DP80V1lwFQxJ1tI7Ybzi5aAXR-AdRq2XWmSfbeDffrKRT2MEQNsP6abiBPc68Y1eqH-6HE9AYt9EfjpIkXiGnAx9CXG33wloUwrypR-DOsdFmyRZF21Mubgg8lN8gpxlVcUs3wt6v_0elR-L8U0z-8KfFH_UkJGCKsjZl42ffhm6HsZBzrFrBBz3EZmi-VU73M_VDKpPvWa7uEZcLZjXxz9afov1RD8EHun-my0]--></g></svg>

<svg xmlns="http://www.w3.org/2000/svg" width="286" height="1085" viewBox="0 0 286 1085"><rect width="131" height="179.273" x="77.5" y="899.42" fill="#3D176E" rx="2.5" ry="2.5" style="stroke:#000d19;stroke-width:.5"/><circle cx="94.75" cy="919.314" r="11" fill="#ADD1B2" style="stroke:#181818;stroke-width:1"/><path d="M97.719 924.955q-.578.297-1.219.438-.64.156-1.344.156-2.5 0-3.828-1.64-1.312-1.657-1.312-4.782t1.312-4.781q1.328-1.657 3.828-1.657.703 0 1.344.157.656.156 1.219.453v2.719q-.625-.579-1.219-.844-.594-.281-1.219-.281-1.344 0-2.031 1.078-.687 1.062-.687 3.156t.687 3.172q.688 1.062 2.031 1.062.625 0 1.219-.265.594-.282 1.219-.86z"/><text x="114.25" y="925.2" fill="#D9B8FF" font-family="Helvetica" font-size="17" textLength="84">azure_sku</text><path d="M78.5 939.209h129" style="stroke:#000d19;stroke-width:.5"/><text x="88.5" y="961.204" fill="#D9B8FF" font-family="sans-serif" font-size="14" font-weight="bold" textLength="65">capacity</text><text x="153.5" y="961.204" fill="#D9B8FF" font-family="sans-serif" font-size="14" textLength="44">: int64</text><text x="88.5" y="987.501" fill="#D9B8FF" font-family="sans-serif" font-size="14" font-weight="bold" textLength="46">family</text><text x="134.5" y="987.501" fill="#D9B8FF" font-family="sans-serif" font-size="14" textLength="48">: string</text><text x="88.5" y="1013.798" fill="#D9B8FF" font-family="sans-serif" font-size="14" font-weight="bold" textLength="43">name</text><text x="131.5" y="1013.798" fill="#D9B8FF" font-family="sans-serif" font-size="14" textLength="48">: string</text><text x="88.5" y="1040.095" fill="#D9B8FF" font-family="sans-serif" font-size="14" font-weight="bold" textLength="32">size</text><text x="120.5" y="1040.095" fill="#D9B8FF" font-family="sans-serif" font-size="14" textLength="48">: string</text><text x="88.5" y="1066.392" fill="#D9B8FF" font-family="sans-serif" font-size="14" font-weight="bold" textLength="27">tier</text><text x="115.5" y="1066.392" fill="#D9B8FF" font-family="sans-serif" font-size="14" textLength="48">: string</text><rect width="272" height="179.273" x="7" y="660.14" fill="#3D176E" rx="2.5" ry="2.5" style="stroke:#000d19;stroke-width:.5"/><circle cx="22" cy="680.034" r="11" fill="#ADD1B2" style="stroke:#181818;stroke-width:1"/><path d="M24.969 685.675q-.578.297-1.219.438-.64.156-1.344.156-2.5 0-3.828-1.64-1.312-1.657-1.312-4.782t1.312-4.781q1.328-1.657 3.828-1.657.703 0 1.344.157.656.156 1.219.453v2.719q-.625-.579-1.219-.844-.594-.281-1.219-.281-1.343 0-2.031 1.078-.687 1.062-.687 3.156t.687 3.172q.688 1.062 2.031 1.062.625 0 1.219-.265.594-.282 1.219-.86z"/><text x="41" y="685.92" fill="#D9B8FF" font-family="Helvetica" font-size="17" textLength="230">azure_sql_server_job_agent</text><path d="M8 699.929h270" style="stroke:#000d19;stroke-width:.5"/><text x="18" y="721.924" fill="#D9B8FF" font-family="sans-serif" font-size="14" font-weight="bold" textLength="93">database_id</text><text x="111" y="721.924" fill="#D9B8FF" font-family="sans-serif" font-size="14" textLength="48">: string</text><text x="18" y="748.221" fill="#D9B8FF" font-family="sans-serif" font-size="14" font-weight="bold" textLength="111">job_agent_sku</text><text x="129" y="748.221" fill="#D9B8FF" font-family="sans-serif" font-size="14" textLength="80">: azure_sku</text><text x="18" y="774.518" fill="#D9B8FF" font-family="sans-serif" font-size="14" font-weight="bold" textLength="62">location</text><text x="80" y="774.518" fill="#D9B8FF" font-family="sans-serif" font-size="14" textLength="48">: string</text><text x="18" y="800.815" fill="#D9B8FF" font-family="sans-serif" font-size="14" font-weight="bold" textLength="40">state</text><text x="58" y="800.815" fill="#D9B8FF" font-family="sans-serif" font-size="14" textLength="48">: string</text><text x="18" y="827.112" fill="#D9B8FF" font-family="sans-serif" font-size="14" font-weight="bold" textLength="35">type</text><text x="53" y="827.112" fill="#D9B8FF" font-family="sans-serif" font-size="14" textLength="48">: string</text><rect width="214" height="100.383" x="36" y="438.76" fill="#3D176E" rx="2.5" ry="2.5" style="stroke:#000d19;stroke-width:.5"/><circle cx="57.3" cy="458.654" r="11" fill="#ADD1B2" style="stroke:#181818;stroke-width:1"/><path d="M60.269 464.295q-.578.297-1.219.438-.64.156-1.344.156-2.5 0-3.828-1.64-1.312-1.657-1.312-4.782t1.312-4.781q1.328-1.656 3.828-1.656.703 0 1.344.156.656.156 1.219.453v2.719q-.625-.579-1.219-.844-.594-.281-1.219-.281-1.344 0-2.031 1.078-.687 1.062-.687 3.156t.687 3.172q.688 1.062 2.031 1.062.625 0 1.219-.265.594-.281 1.219-.86z"/><text x="77.7" y="464.54" fill="#D9B8FF" font-family="Helvetica" font-size="17" textLength="158">microsoft_resource</text><path d="M37 478.549h212" style="stroke:#000d19;stroke-width:.5"/><text x="47" y="500.544" fill="#D9B8FF" font-family="sans-serif" font-size="14" font-weight="bold" textLength="35">etag</text><text x="82" y="500.544" fill="#D9B8FF" font-family="sans-serif" font-size="14" textLength="48">: string</text><text x="47" y="526.841" fill="#D9B8FF" font-family="sans-serif" font-size="14" font-weight="bold" textLength="144">provisioning_state</text><text x="191" y="526.841" fill="#D9B8FF" font-family="sans-serif" font-size="14" textLength="48">: string</text><rect width="227" height="310.758" x="29.5" y="7" fill="#3D176E" rx="2.5" ry="2.5" style="stroke:#000d19;stroke-width:.5"/><circle cx="98.25" cy="26.895" r="11" fill="#ADD1B2" style="stroke:#181818;stroke-width:1"/><path d="M101.219 32.535q-.578.297-1.219.438-.64.156-1.344.156-2.5 0-3.828-1.64-1.312-1.657-1.312-4.782t1.312-4.781q1.328-1.656 3.828-1.656.703 0 1.344.156.656.156 1.219.453v2.719q-.625-.578-1.219-.844-.594-.281-1.219-.281-1.344 0-2.031 1.078-.687 1.062-.687 3.156t.687 3.172q.688 1.062 2.031 1.062.625 0 1.219-.265.594-.281 1.219-.86z"/><text x="123.75" y="32.78" fill="#D9B8FF" font-family="Helvetica" font-size="17" textLength="71">resource</text><path d="M30.5 46.789h225" style="stroke:#000d19;stroke-width:.5"/><text x="40.5" y="68.784" fill="#D9B8FF" font-family="sans-serif" font-size="14" font-weight="bold" textLength="29">age</text><text x="69.5" y="68.784" fill="#D9B8FF" font-family="sans-serif" font-size="14" textLength="66">: duration</text><text x="40.5" y="95.081" fill="#D9B8FF" font-family="sans-serif" font-size="14" font-weight="bold" textLength="43">atime</text><text x="83.5" y="95.081" fill="#D9B8FF" font-family="sans-serif" font-size="14" textLength="70">: datetime</text><text x="40.5" y="121.378" fill="#D9B8FF" font-family="sans-serif" font-size="14" font-weight="bold" textLength="43">ctime</text><text x="83.5" y="121.378" fill="#D9B8FF" font-family="sans-serif" font-size="14" textLength="70">: datetime</text><text x="40.5" y="147.675" fill="#D9B8FF" font-family="sans-serif" font-size="14" font-weight="bold" textLength="14">id</text><text x="54.5" y="147.675" fill="#D9B8FF" font-family="sans-serif" font-size="14" textLength="48">: string</text><text x="40.5" y="173.972" fill="#D9B8FF" font-family="sans-serif" font-size="14" font-weight="bold" textLength="33">kind</text><text x="73.5" y="173.972" fill="#D9B8FF" font-family="sans-serif" font-size="14" textLength="48">: string</text><text x="40.5" y="200.269" fill="#D9B8FF" font-family="sans-serif" font-size="14" font-weight="bold" textLength="90">last_access</text><text x="130.5" y="200.269" fill="#D9B8FF" font-family="sans-serif" font-size="14" textLength="66">: duration</text><text x="40.5" y="226.565" fill="#D9B8FF" font-family="sans-serif" font-size="14" font-weight="bold" textLength="90">last_update</text><text x="130.5" y="226.565" fill="#D9B8FF" font-family="sans-serif" font-size="14" textLength="66">: duration</text><text x="40.5" y="252.862" fill="#D9B8FF" font-family="sans-serif" font-size="14" font-weight="bold" textLength="48">mtime</text><text x="88.5" y="252.862" fill="#D9B8FF" font-family="sans-serif" font-size="14" textLength="70">: datetime</text><text x="40.5" y="279.159" fill="#D9B8FF" font-family="sans-serif" font-size="14" font-weight="bold" textLength="43">name</text><text x="83.5" y="279.159" fill="#D9B8FF" font-family="sans-serif" font-size="14" textLength="48">: string</text><text x="40.5" y="305.456" fill="#D9B8FF" font-family="sans-serif" font-size="14" font-weight="bold" textLength="34">tags</text><text x="74.5" y="305.456" fill="#D9B8FF" font-family="sans-serif" font-size="14" textLength="171">: dictionary[string, string]</text><path fill="none" d="M143 839.81v53.11" style="stroke:#ffaf37;stroke-width:2"/><path fill="#FFAF37" d="m143 898.92 4-9-4 4-4-4z" style="stroke:#ffaf37;stroke-width:2"/><path fill="none" d="M143 557.55v102.24m0-120.24-6 18h12zm0-203.49v102.36m0-120.36-6 18h12z" style="stroke:#ffaf37;stroke-width:2"/></svg>
